!!! OTL: Berkowitz390
!!! Chapter: 1
!!! Section: III
!!! Page: 96
!!! Mode: 
!!! Encoder: DJB
**kern
*staff1
*I"Piano
=1-
*clefF4
*k[b-e-]
*B-:
*M2/4
4r
8r
16D/LL
16C/JJ
=2
16BB-/LL
16C/
16D/
16E-/JJ
8F\L
8F\J
=3
8F\L
8G\J
8En\L
8F\J
=4
8D\L
8E-\J
8C#/L
8D/J
=5
8BBn/L
8C/J
8GG/L
8AA/J
=6
16BB-/LL
16C/
16D/
16E-/JJ
8F\L
8F\J
=7
8F\L
8B-\J
8A\L
8F\J
=8
8A-\L
8G\J
8E-\L
8G-\J
=9
!!linebreak:original
16F\LL
16E-\
16D\
16E-\JJ
16F\LL
16G-\
16F\
16G-\JJ
=10
16F\LL
16E-\
16D\
16C\JJ
8BB-/
8r
==
*-
